src/next/cmd/tr/sc_italic.svg

<svg height="16" viewBox="0 0 4.2333333 4.2333335" width="16" xmlns="http://www.w3.org/2000/svg" xmlns:xlink="http://www.w3.org/1999/xlink"><linearGradient id="a" gradientUnits="userSpaceOnUse" x1="14.835992" x2="16.05715" y1="31.138447" y2="3.051811"><stop offset="0" stop-color="#555"/><stop offset="1"/></linearGradient><linearGradient id="b" gradientUnits="userSpaceOnUse" x1="7.074444" x2="27.609627" y1="12.051978" y2="12.051978"><stop offset="0" stop-color="#3b3e22"/><stop offset="1" stop-color="#454545" stop-opacity="0"/></linearGradient><g stroke-width="1.015378" transform="scale(.125)"><path d="m29.199866 2.9785495-1.880583 6.9667067-.726589-.085481q.128221-1.1112538.128221-1.9233239 0-1.7951023-1.068513-2.6071725-1.068513-.8548107-3.376502-.8548107h-2.350729l-5.940934 21.2847849q-.512886 1.923324-.512886 2.521691 0 .940292.470145 1.324957.470146.384665 1.752362.470146.128222 0 .683849.04274.555627.04274.940291.08548v.683849h-12.3947538v-.683848q2.1370266-.170962 3.1200588-.81207.9830323-.683848 1.4104376-2.350729l6.1546364-22.5670009h-.897551q-4.316794 0-5.9836744.9830322-1.6668808.9402917-3.291021 4.2740532l-.7693296-.1709621 1.7951024-6.5820419z" fill="url(#a)" stroke-width="1.015378"/><path d="m7.3907039 4.1950932-.3162599 1.1601358c.3457983-.321224.6605797-.7318735 1.0469648-.9508464.1736201-.1018336.4427611-.1234445.6330363-.2092894zm9.4004601 0a1.2177836 1.2177836 0 0 1 -.0098.5999634l-4.121731 15.1138064a25.672371 10.147183 0 0 0 1.717208-.08217l4.363558-15.6315998zm9.238195 0c.112583.072795.261956.09257.367421.1762165.385485.2952311.621382.7175746.859378 1.1342979l.353467-1.3105144z" fill="url(#b)"/></g></svg>

<?xml version="1.0" encoding="UTF-8" standalone="no"?>
<svg
   xmlns:dc="http://purl.org/dc/elements/1.1/"
   xmlns:cc="http://creativecommons.org/ns#"
   xmlns:rdf="http://www.w3.org/1999/02/22-rdf-syntax-ns#"
   xmlns:svg="http://www.w3.org/2000/svg"
   xmlns="http://www.w3.org/2000/svg"
   xmlns:xlink="http://www.w3.org/1999/xlink"
   xmlns:sodipodi="http://sodipodi.sourceforge.net/DTD/sodipodi-0.dtd"
   xmlns:inkscape="http://www.inkscape.org/namespaces/inkscape"
   height="16"
   viewBox="0 0 4.2333333 4.2333335"
   width="16"
   version="1.1"
   id="svg20"
   sodipodi:docname="sc_italic.svg"
   inkscape:version="0.92.4 (unknown)">
  <metadata
     id="metadata26">
    <rdf:RDF>
      <cc:Work
         rdf:about="">
        <dc:format>image/svg+xml</dc:format>
        <dc:type
           rdf:resource="http://purl.org/dc/dcmitype/StillImage" />
        <dc:title></dc:title>
      </cc:Work>
    </rdf:RDF>
  </metadata>
  <defs
     id="defs24">
    <linearGradient
       inkscape:collect="always"
       xlink:href="#b"
       id="linearGradient57"
       gradientUnits="userSpaceOnUse"
       x1="14.835992"
       y1="31.138447"
       x2="16.05715"
       y2="3.051811" />
    <linearGradient
       inkscape:collect="always"
       xlink:href="#b"
       id="linearGradient59"
       gradientUnits="userSpaceOnUse"
       x1="14.835992"
       y1="31.138447"
       x2="16.05715"
       y2="3.051811" />
  </defs>
  <sodipodi:namedview
     pagecolor="#ffffff"
     bordercolor="#666666"
     borderopacity="1"
     objecttolerance="10"
     gridtolerance="10"
     guidetolerance="10"
     inkscape:pageopacity="0"
     inkscape:pageshadow="2"
     inkscape:window-width="1366"
     inkscape:window-height="706"
     id="namedview22"
     showgrid="true"
     inkscape:zoom="5.2149125"
     inkscape:cx="20.515743"
     inkscape:cy="16.114266"
     inkscape:window-x="0"
     inkscape:window-y="0"
     inkscape:window-maximized="1"
     inkscape:current-layer="g18">
    <inkscape:grid
       type="xygrid"
       id="grid31" />
  </sodipodi:namedview>
  <linearGradient
     id="a"
     gradientUnits="userSpaceOnUse"
     x1="7.0744438"
     x2="27.609627"
     y1="12.051978"
     y2="12.051978">
    <stop
       offset="0"
       stop-color="#3b3e22"
       id="stop2" />
    <stop
       offset="1"
       stop-color="#454545"
       stop-opacity="0"
       id="stop4" />
  </linearGradient>
  <linearGradient
     id="b"
     gradientUnits="userSpaceOnUse"
     x1="14.835992"
     x2="16.05715"
     y1="31.138447"
     y2="3.051811">
    <stop
       offset="0"
       stop-color="#555"
       id="stop7" />
    <stop
       offset="1"
       id="stop9" />
  </linearGradient>
  <g
     id="g18"
     transform="scale(0.125)"
     style="stroke-width:1.015378">
    <g
       aria-label="T"
       style="font-size:40.61514282px;font-family:sans-serif;letter-spacing:0;word-spacing:0;fill:url(#linearGradient59)"
       id="text14">
      <path
         d="m 29.199866,2.9785495 -1.880583,6.9667067 -0.726589,-0.085481 q 0.128221,-1.1112538 0.128221,-1.9233239 0,-1.7951023 -1.068513,-2.6071725 Q 24.583889,4.4744681 22.2759,4.4744681 H 19.925171 L 13.984237,25.759253 q -0.512886,1.923324 -0.512886,2.521691 0,0.940292 0.470145,1.324957 0.470146,0.384665 1.752362,0.470146 0.128222,0 0.683849,0.04274 0.555627,0.04274 0.940291,0.08548 v 0.683849 H 4.9232442 V 30.204268 Q 7.0602708,30.033306 8.043303,29.392198 9.0263353,28.70835 9.4537406,27.041469 L 15.608377,4.4744681 h -0.897551 q -4.316794,0 -5.9836744,0.9830322 Q 7.0602708,6.397792 5.4361306,9.7315535 L 4.666801,9.5605914 6.4619034,2.9785495 Z"
         style="font-style:italic;font-size:42.74053192px;font-family:FreeSerif;fill:url(#linearGradient57);stroke-width:1.015378"
         id="path28"
         inkscape:connector-curvature="0" />
    </g>
    <path
       d="M 7.3907039,4.1950932 7.074444,5.355229 C 7.4202423,5.034005 7.7350237,4.6233555 8.1214088,4.4043826 8.2950289,4.302549 8.5641699,4.2809381 8.7544451,4.1950932 Z m 9.4004601,0 a 1.2177836,1.2177836 0 0 1 -0.0098,0.5999634 L 12.659633,19.908863 a 25.672371,10.147183 0 0 0 1.717208,-0.08217 L 18.740399,4.1950932 Z m 9.238195,0 c 0.112583,0.072795 0.261956,0.09257 0.367421,0.1762165 0.385485,0.2952311 0.621382,0.7175746 0.859378,1.1342979 l 0.353467,-1.3105144 z"
       id="path16"
       style="fill:url(#a)"
       inkscape:connector-curvature="0" />
  </g>
</svg>
